X:1
T: The Castle Hornpipe
P:(Ryan's version)
R:Reel
Q: 232
K:A
M:4/4
L:1/8
|:E2|CE AE CE AE|CE Ac ec A2|dc Bc de fg|ae cA BA FA|CE AE CE AE|DF AF DF AF|EG BG EG BG|A2 A2 A2:|
|:cd|ed cd ea ga|fe dc B2 Bc|dc Bc df ^ef|gf ed c2 cd|ea ga fa ga|eb ab gb ab|ec' bc' d'e fg|a2 a2 a2:|
|:cd|ec AE CE Ac|fd BG E2 Bc|dB GE B,E GB|cA EC A,2 cd|ec Ac dc df|ag af fe cA|Bc df eB GB|A2 A2 A2:|
